assets/images/author.svg

<svg height="32" viewBox="0 0 32 32" width="32" xmlns="http://www.w3.org/2000/svg" xmlns:xlink="http://www.w3.org/1999/xlink"><linearGradient id="a" x1="92.85473%" x2="-13.765448%" y1="76.652238%" y2="27.566747%"><stop offset="0" stop-color="#1764ff"/><stop offset="1" stop-color="#4093ed"/></linearGradient><g fill="none" fill-rule="evenodd"><path d="m-572-470h1507v1024h-1507z" fill="#fff"/><g fill-rule="nonzero"><circle cx="15.592058" cy="15.592058" fill="url(#a)" r="15.592058"/><path d="m12.4863388 17.4438581c.1114754-.0393442.2491803-.0327869.3737705-.0196721.0852459.0131147.1901639.0459016.3147541.0983606.295082-.0196721.5180328-.0065573.6688524.0459017.2229509.0786885.3278689.1770492.3868853.3278688.0327869.0983607.0393443.2032787 0 .3278689-.1114754-.0852459-.2098361-.1311476-.3016394-.1442623-.1377049-.0131148-.2032786.0131147-.4131147.0918033-.1442623.052459-.2491803.1245901-.3344262.1967213l-2.190164 1.8885246-.4131147 2.1967213c-.1836066.609836-.4327869 1.0950819-.73442625 1.4622951-.4590164.5508196-.76721312.6950819-1.31803279.9901639-.36721311.1967213-.78688525.3278689-1.26557377.3868852.23606557-.0459016.47868852-.2426229.74098361-.5836065.10491803-.1311476.35409836-.452459.43278688-.9639344.0852459-.5311476.13114754-1.7836066.13770492-3.7573771l-1.40983607-.4983606c3.47540987-1.337705 5.25245907-2.0196722 5.32459017-2.0459017zm10.9508197-4.1311475c.4196721 1.2.1377049 3.0557377-.5311476 4.6295082-1.6983606 3.9934426-6.3081967 5.8622951-10.3081967 4.1639344-.1704918-.0721311-.3409836-.1639344-.5245902-.2688525-.0983606-.0590164-.1967213-.1180327-.3278688-.1967213-.0721312-.0393442-.0721312-.0393442-.1311475-.0786885l1.3180327-2.1245902.1311476.0786886c.1114754.0721311.1901639.1180328.2622951.157377.104918.0590164.1901639.104918.2557377.1311476 2.7213114 1.1606557 5.8754098-.1114755 7.0295082-2.8393443.4459016-1.0557377.6426229-2.3409836.4721311-2.8327869zm-14.99672134-1.5213115c1.69836064-3.99344262 6.30819674-5.86229508 10.30819674-4.16393443 1.8360656.78032787 3.2655738 2.20983607 4.0721311 3.98032783l4.0459017-.7737704-20.00000003 7.9475409.79344262-4.2819672.1704918-.0327869c.04590164-.904918.24262295-1.809836.60983607-2.6754098zm9.33114754-1.8557377c-2.7213115-1.16065574-5.8754098.1114754-7.0295082 2.8393443-.1639344.3934426-.2754098.8-.347541 1.2065573l9.8622951-1.8819672c-.5704918-.9508197-1.4295082-1.7114754-2.4852459-2.1639344z" fill="#fff"/></g></g></svg>

<?xml version="1.0" encoding="UTF-8"?>
<svg width="32px" height="32px" viewBox="0 0 32 32" version="1.1" xmlns="http://www.w3.org/2000/svg" xmlns:xlink="http://www.w3.org/1999/xlink">
    <defs>
        <linearGradient x1="92.8547295%" y1="76.6522377%" x2="-13.7654477%" y2="27.5667474%" id="linearGradient-1">
            <stop stop-color="#1764FF" offset="0%"></stop>
            <stop stop-color="#4093ED" offset="100%"></stop>
        </linearGradient>
    </defs>
    <g id="页面-1" stroke="none" stroke-width="1" fill="none" fill-rule="evenodd">
        <g id="切图" transform="translate(-572.000000, -470.000000)">
            <rect id="矩形" fill="#FFFFFF" x="0" y="0" width="1507" height="1024"></rect>
            <g id="编组-26" transform="translate(572.000000, 470.000000)" fill-rule="nonzero">
                <circle id="椭圆形" fill="url(#linearGradient-1)" cx="15.5920576" cy="15.5920576" r="15.5920576"></circle>
                <path d="M12.4863388,17.4438581 C12.5978142,17.4045139 12.7355191,17.4110712 12.8601093,17.424186 C12.9453552,17.4373007 13.0502732,17.4700876 13.1748634,17.5225466 C13.4699454,17.5028745 13.6928962,17.5159893 13.8437158,17.5684483 C14.0666667,17.6471368 14.1715847,17.7454975 14.2306011,17.8963171 C14.263388,17.9946778 14.2699454,18.0995958 14.2306011,18.224186 C14.1191257,18.1389401 14.020765,18.0930384 13.9289617,18.0799237 C13.7912568,18.0668089 13.7256831,18.0930384 13.515847,18.171727 C13.3715847,18.224186 13.2666667,18.2963171 13.1814208,18.3684483 L13.1814208,18.3684483 L10.9912568,20.2569729 L10.5781421,22.4536942 C10.3945355,23.0635302 10.1453552,23.5487761 9.84371585,23.9159893 C9.38469945,24.4668089 9.07650273,24.6110712 8.52568306,24.9061532 C8.15846995,25.1028745 7.73879781,25.2340221 7.26010929,25.2930384 C7.49617486,25.2471368 7.73879781,25.0504155 8.0010929,24.7094319 C8.10601093,24.5782843 8.35519126,24.2569729 8.43387978,23.7454975 C8.51912568,23.2143499 8.56502732,21.9618909 8.5715847,19.9881204 L8.5715847,19.9881204 L7.16174863,19.4897598 C10.6371585,18.1520548 12.4142077,17.4700876 12.4863388,17.4438581 Z M23.4371585,13.3127106 C23.8568306,14.5127106 23.5748634,16.3684483 22.9060109,17.9422188 C21.2076503,21.9356614 16.5978142,23.8045139 12.5978142,22.1061532 C12.4273224,22.0340221 12.2568306,21.9422188 12.073224,21.8373007 C11.9748634,21.7782843 11.8765027,21.719268 11.7453552,21.6405794 C11.673224,21.6012352 11.673224,21.6012352 11.6142077,21.5618909 L11.6142077,21.5618909 L12.9322404,19.4373007 C12.9978142,19.476645 12.9978142,19.476645 13.063388,19.5159893 C13.1748634,19.5881204 13.2535519,19.6340221 13.3256831,19.6733663 C13.4306011,19.7323827 13.515847,19.7782843 13.5814208,19.8045139 C16.3027322,20.9651696 19.4568306,19.6930384 20.610929,16.9651696 C21.0568306,15.9094319 21.2535519,14.624186 21.0830601,14.1323827 L21.0830601,14.1323827 Z M8.44043716,11.7913991 C10.1387978,7.79795648 14.7486339,5.92910402 18.7486339,7.62746467 C20.5846995,8.40779254 22.0142077,9.83730074 22.820765,11.6077925 L22.820765,11.6077925 L26.8666667,10.8340221 L6.86666667,18.781563 L7.66010929,14.4995958 L7.83060109,14.4668089 C7.87650273,13.5618909 8.07322404,12.6569729 8.44043716,11.7913991 Z M17.7715847,9.9356614 C15.0502732,8.77500566 11.8961749,10.0471368 10.7420765,12.7750057 C10.5781421,13.1684483 10.4666667,13.5750057 10.3945355,13.981563 L10.3945355,13.981563 L20.2568306,12.0995958 C19.6863388,11.1487761 18.8273224,10.3881204 17.7715847,9.9356614 Z" id="形状结合" fill="#FFFFFF"></path>
            </g>
        </g>
    </g>
</svg>
